!!!ONB: MCCC : IJH0454_02 : Extracted Monophonic Melody
!!!COM: Haydn, Joseph
!!!OPR: String Quartet in F major
!!!OMV: 2
!!!SCT: Hob.III:73 ; Op.74 No.2
!!!ODT: 1793///
**kern
*thru
*k[b-e-]
*B-:
*clefF
*M2/4
8..ff
32ee-
8dd
8dd
=1
8dd
8ee-
4cc
=2
8b-
8b
16.cc
32dd
16.ee-
32gg
=3
4dd
16cc
16dd
16ee-
16ee
=4
8..ff
32ee-
8dd
8dd
=5
8..gg
32ff
8ee
8ee
=6
8ff
8b
8cc
8e
=7
4g
8f
8r
=8
8g
16a-
16g
8g
8g
=9
8g
8b
8cc
8cc
=10
8..dd
32ee-
8ff
8b
=11
4dd
8cc
8dd
=12
8..ee-
32ff
8gg
8cc
=13
8..dd
32ee-
8ff
8bb-
=14
8c
16d
16c
8c
8c
=15
6..c[
48c]
16d
16e-
16e
=16
4f
4r
=17
2r
=18
8..ff
32ee-
8dd
8dd
=19
8dd
8ee-
4cc
=20
8b-
8b
16.cc
32dd
16.ee-
32gg
=21
4dd
16cc
16b
16cc
16dd
=22
8..ee-
32dd
8cc
8cc
=23
8..gg
32ff
8ee-
8ee-
=24
8dd
8ee
8ff
8a
=25
4cc
8b-
8r
=26
2r
=27
4r
32a
32b-
32a
32b-
32a
32cc
32ee-
32a
=28
16b-
8bb-
16aa-
16.gg
32ff
16.ee-
32cc
=29
4b-
8a
8r
=30
32b-
32a
32cc
32b-
32dd
32cc
32ee-
32dd
8ff
8ff
=31
32ff
32ee
32gg
32ff
32aa
32gg
32bb-
32aa
16ccc
16bb-
16bb-
16bb-
=32
16bb-
16aa
16r
16aa-
16r
16ff
16r
16ee
=33
4ee
8ff
8r
=34
2r
=35
2r
=36
2r
=37
4r
8r
8aa-
=38
8gg
8ff
8ee-
8gg
=39
8ff
8ee-
8dd
8bb-
=40
2bb-[
=41
16bb-]
16aa
16gg
16ff
16ee
16ff
16ee-
16cc
=42
4b-
4r
=43
2r
=44
32b-
32a
32cc
32b-
32dd
32cc
32ee-
32dd
8ff
8ff
=45
16ff
16ee
16ee-
16ee-
16ee-
16cc
16cc
16a
=46
16b-
8ff
16aa-
16.gg
32ff
16.ee-
32cc
=47
4b-
16a
16g#
16a
16b-
=48
32a
32b-
32cc
32b-
32a
32b-
32cc
32dd
16ee-
16ee-
16ee-
16ee-
=49
32ee-
32dd
32cc
32b
32cc
32dd
32ee-
32ff
32gg
32ff
32ee-
32dd
32ee-
32ff
32gg
32aa
=50
8bb-
8dd-
8dd
24ee-
24cc
24a
=51
4cc
8b-
8r
=52
2f
=53
2g-
=54
2g-[
=55
4g-]
4f
=56
4f
4g-[
=57
8g-]
4A-
8d-[
=58
8d-]
8f-
8e-
8g-
=59
4g-
8f
8r
=60
2f
=61
4.e-
8g-
=62
8g-
8f
8..f
32b-
=63
4b-
8a
8r
=64
2f
=65
2g-
=66
4a-
4g-
=67
4g-
4f
=68
8g-
8g-
8e-
8e-
=69
4e-
8d-
8r
=70
8..ff
32ee-
8dd
8dd
=71
8dd
8ee-
4cc
=72
8b-
8b
16.cc
32dd
16.ee-
32gg
=73
4dd
16cc
16dd
16ee-
16ee
=74
8..ff
32ee-
8dd
8dd
=75
8..gg
32ff
8ee
8ee
=76
8ff
8b
8cc
8e
=77
4g
8f
8r
=78
8..ff
32ee-
8dd
8dd
=79
8dd
8ee-
4cc
=80
8b-
8b
16.cc
32dd
16.ee-
32gg
=81
4dd
16cc
16dd
16ee-
16ee
=82
8..ff
32ee-
8dd
8dd
=83
8..gg
32ff
8ee
8ee
=84
8ff
8b
8cc
8e
=85
4g
8f
8r
=86
8g
16a-
16g
8g
8g
=87
8g
8b
8cc
8cc
=88
8..dd
32ee-
8ff
8b
=89
4dd
8cc
8dd
=90
24dd
24ee-
24ee-
24ee-
24ff
24ff
24ff
24gg
24ff
24ee-
24dd
24cc
=91
24cc
24dd
24dd
24dd
24ee-
24ee-
24ee-
24ff
24ff
24ff
24bb-
24bb-
=92
24bb-
24c
24B
24c
24B
24c
24d-
24c
24c
24B
24c
24c
=93
24c
24e
24g
24b-
24g
24e
8f
8r
=94
2r
=95
2r
=96
8..ff
32ee-
8dd
8dd
=97
8dd
8ee-
4cc
=98
8b-
8b
16.cc
32dd
16.ee-
32gg
=99
4dd
24cc
24a
24b-
24b
24cc
24dd
=100
8..ee-
32dd
8cc
8cc
=101
8..gg
32ff
8ee-
8ee-
=102
8dd
8ee
8ff
8a
=103
4b-
4r
=104
8..bb-
32aa
8gg
8gg
=105
8..ff
32ee-
8dd
8dd
=106
24cc
24gg
24ee-
24dd
24cc
24b-
24a
24g
24f
24e-
24d
24c
=107
24B-
24bb-
24bb-
24bb-
24bb-
24bb-
24bb-
24bb-
24bb-
24bb-
24bb-
24bb-
=108
24bb-
24bb-
24bb-
24bb-
24bb-
24bb-
24bb-
24bb-
24bb-
24bb-
24bb-
24bb-
=109
24bb-
24bb-
24bb-
24bb-
24bb-
24bb-
24bb-
24bb-
24bb-
24bb-
24bb-
24bb-
=110
24bb-
24gg
24ee-
24dd
24cc
24b-
24a
24g
24f
24e-
24d
24c
=111
24B-
24B-
24B-
24e-
24e-
24e-
24d
24d
24d
24e-
24e-
24e-
=112
16d
16r
24e-
24e-
24e-
24d
24d
24d
24e-
24e-
24e-
=113
8d
8r
8d
16.r
32d
=114
4d
4r
==
*-
